X:882
T:Waltz from "Copp\'elia"
C:Leo Delibes
O:France
R:Waltz
Z:Transcribed by Frank Nordberg - http://www.musicaviva.com
F:http://abc.musicaviva.com/tunes/delibes-leo/delibes-waltz-coppelia/delibes-waltz-coppelia.abc
V:1 Program 1 71 %Clarinet
M:3/4
L:1/8
Q:1/4=160
K:Bb
"_p"(df|b4) (c'a|g4) (af|d2) c2 B2|d2 z2 (df|b4) (c'a|g4) (af|
e2) d2 c2|e2 z2 "_cresc."(de|b4 "_dim"a_a|g2) z2 "_cresc."(Ac|g4 "_dim."^f=f|\
e2) z2 (FA|c4) "_cresc."(FA|
^c4) (FA|d6-)|d2 z2 "_p"(df|b4) (c'a|g4) (af|d2) c2 B2|d2 z2 (df|
b4) (c'a|g4) (af|e2) d2 c2|e2 z2 "_cresc."(df|e'4 "_dim."d'^c'|=c'2) z2 "_cresc."(de|
d'4 "_dim."^c'=c'|b2) z2 (df|d4) (^cf|^c4) (=cf|B6-)|B2 z2 |]
W:
W:
W:  From Musica Viva - http://www.musicaviva.com
W:  the Internet center for free sheet music downloads.

